X: 47
T: Zongliangshang shangdiao rengbuxi niang
L: 1/16
M: 2/4
K: F
d2c4d f [I:setbarnb 1]| 
A2 A G F2 D2 | 
[M:1/4]F F F G | 
[M:2/4]A2 A c G F2 D | 
C8 | 
d2c4d f | 
A2 A G F2 D2 | 
[M:1/4]F F F G | 
[M:2/4]A2 A c G F2 D | 
C8 |]

@@@ Tune index: 8921
